svgs/sharp-light/tablet-screen.svg

<svg xmlns="http://www.w3.org/2000/svg" viewBox="0 0 448 512"><!--! Font Awesome Pro 6.6.0 by @fontawesome - https://fontawesome.com License - https://fontawesome.com/license (Commercial License) Copyright 2024 Fonticons, Inc. --><path d="M416 32l0 288L32 320 32 32l384 0zm0 320l0 128L32 480l0-128 384 0zM32 0L0 0 0 32 0 480l0 32 32 0 384 0 32 0 0-32 0-448 0-32L416 0 32 0zM176 400l0 32 16 0 64 0 16 0 0-32-16 0-64 0-16 0z"/></svg>

<svg xmlns="http://www.w3.org/2000/svg" viewBox="0 0 448 512"><!--! Font Awesome Pro 6.4.2 by @fontawesome - https://fontawesome.com License - https://fontawesome.com/license (Commercial License) Copyright 2023 Fonticons, Inc. --><path d="M416 32V320H32V32H416zm0 320V480H32V352H416zM32 0H0V32 480v32H32 416h32V480 32 0H416 32zM176 400v32h16 64 16V400H256 192 176z"/></svg>
